X:1
S: Wendy Galovich <wendy@argyll.wisemagic.COM>
T:Christmas Day Ida Moarnin'
M:12/8
L:1/8
C:Trad
O:Shetland Islands
% Contributed 19991129144029 by John Chambers jc2trillian.mit.edu
K:D
"D"f2d f3 "A"e2d c2A | "G"B2G d2c B2A G3|\
"A"e2f g2f e2d c2B | ABA ABc "D"d3 d3 |
fa2 a3 "A"e2d c2A | "G"B2G d2c B2A G3 |\
"A"e2f g2f e2d c2B | A2A ABc "D"d3 d3 |
|: "Em"e3 ((4edef) g3 B3 | "D"A2F F2A B2c d2B |\
"Em"e3 ((4edef) g3 B3 | "D"A2e d2B A3 A3 :|
